X:66
T:Toss the Feathers
C:Traditional
R:reel
M:C|
K:Dmix
D2 (3(=FED) AD (3(=FED)|ABcA GE~E2|D2 (3(=FED) AD (3(=FED)|d2ed cAGE|
D2 (3(=FED) AD (3(=FED)|ABcA GE~E2|cABG A2B^c|dfed cAGE:|
|:Ad~d2 Ad~d2|Ad~d2 ed^cd|eaag ~a2ag|eaag ed^cd|
efge afge|dfed cAAB|cABG A2B^c|dfed cAGE:|

